Sources/FrostedUI/Resources/Icons.xcassets/stickerFilled20.imageset/sticker-filled-20.svg

<svg width="20" height="20" viewBox="0 0 20 20" fill="none" xmlns="http://www.w3.org/2000/svg" data-fui-icon="true">
  <g clip-path="url(#clip0_6194_383)">
    <path
      d="M11.6845 0.488273C14.7519 -0.219878 17.8127 1.69277 18.5209 4.76011L19.0427 7.02016C19.1056 7.29282 18.9356 7.56487 18.6629 7.62782L14.2458 8.64761L14.0244 8.70472C11.7688 9.3474 10.3896 11.6538 10.9231 13.9649L11.9429 18.3821C12.0059 18.6547 11.8359 18.9268 11.5632 18.9897L9.30317 19.5115C6.23583 20.2197 3.17496 18.307 2.46681 15.2397L0.982216 8.80923C0.274065 5.74189 2.18671 2.68101 5.25405 1.97286L11.6845 0.488273ZM18.5398 9.1957C18.8746 9.11842 19.1873 9.3899 19.1385 9.72998C18.6627 13.0433 16.8102 16.0079 14.0408 17.888C13.7565 18.0809 13.3754 17.9189 13.2982 17.5841L12.3847 13.6275C12.0203 12.049 13.0047 10.4736 14.5832 10.1092L18.5398 9.1957Z"
      fill="currentColor"
    />
  </g>
  <defs>
    <clipPath id="clip0_6194_383"><path fill="currentColor" d="M0 0H20V20H0z" /></clipPath>
  </defs>
</svg>

<svg xmlns="http://www.w3.org/2000/svg" width="20" height="20" fill="none" data-fui-icon="true" viewBox="0 0 20 20"><g clip-path="url(#a)"><path fill="currentColor" d="M11.685.488A5.7 5.7 0 0 1 18.52 4.76l.522 2.26a.507.507 0 0 1-.38.608l-4.417 1.02-.222.057a4.434 4.434 0 0 0-3.1 5.26l1.019 4.417a.507.507 0 0 1-.38.608l-2.26.522a5.7 5.7 0 0 1-6.836-4.272L.982 8.81a5.7 5.7 0 0 1 4.272-6.837zm6.855 8.708a.485.485 0 0 1 .599.534 11.91 11.91 0 0 1-5.098 8.158.485.485 0 0 1-.743-.304l-.913-3.956a2.934 2.934 0 0 1 2.198-3.519z"/></g><defs><clipPath id="a"><path fill="currentColor" d="M0 0h20v20H0z"/></clipPath></defs></svg>
